X:070 
T:Glencolmcille (reel) 
B:CRE 3.176 (Gleann Cholm Cille)
F:file ID: cre.3/070glenc
L:1/8
M:4/4
Q:180
R:reel
K:D
B,|A,2DE FEDF|Adcd BAFA|BABc dBAF|G2 FE DB,A,B,|
DCDE FEDF|Adcd BAFA|(3Bcd ec dBAG|FGEF D3:|
g|:fded cAAg|fdef gbag|f2 ed cAAF|GBAG FD D2|
fded cAAg|fdfa g2 fg|(3agf (3gfe fded|1 cABc d2 (3efg:|\
[2 cABc dBAF||

%%%

